Newaita/actions/16/format-justify-right.svg

<svg height="16" viewBox="0 0 16 16" width="16" xmlns="http://www.w3.org/2000/svg"><g fill="#424242"><path d="m1.652344 3.433594h12.570312c.183594 0 .332032-.148438.332032-.332032v-.660156c0-.183594-.148438-.332031-.332032-.332031h-12.570312c-.179688 0-.328125.148437-.328125.332031v.660156c0 .183594.148437.332032.328125.332032zm0 0"/><path d="m4.300781 14.347656h9.921875c.183594 0 .332032-.148437.332032-.332031v-.660156c0-.183594-.148438-.332031-.332032-.332031h-9.921875c-.183593 0-.332031.148437-.332031.332031v.660156c0 .183594.148438.332031.332031.332031zm0 0"/><path d="m4.300781 10.710938h9.921875c.183594 0 .332032-.148438.332032-.332032v-.660156c0-.183594-.148438-.332031-.332032-.332031h-9.921875c-.183593 0-.332031.148437-.332031.332031v.660156c0 .183594.148438.332032.332031.332032zm0 0"/><path d="m4.300781 7.070312h9.921875c.183594 0 .332032-.148437.332032-.332031v-.660156c0-.183594-.148438-.332031-.332032-.332031h-9.921875c-.183593 0-.332031.148437-.332031.332031v.660156c0 .183594.148438.332031.332031.332031zm0 0"/></g></svg>

<?xml version="1.0" encoding="UTF-8"?>
<svg xmlns="http://www.w3.org/2000/svg" xmlns:xlink="http://www.w3.org/1999/xlink" width="16px" height="16px" viewBox="0 0 16 16" version="1.1">
<g id="surface1">
<path style=" stroke:none;fill-rule:nonzero;fill:rgb(25.882354%,25.882354%,25.882354%);fill-opacity:1;" d="M 1.652344 3.433594 L 14.222656 3.433594 C 14.40625 3.433594 14.554688 3.285156 14.554688 3.101562 L 14.554688 2.441406 C 14.554688 2.257812 14.40625 2.109375 14.222656 2.109375 L 1.652344 2.109375 C 1.472656 2.109375 1.324219 2.257812 1.324219 2.441406 L 1.324219 3.101562 C 1.324219 3.285156 1.472656 3.433594 1.652344 3.433594 Z M 1.652344 3.433594 "/>
<path style=" stroke:none;fill-rule:nonzero;fill:rgb(25.882354%,25.882354%,25.882354%);fill-opacity:1;" d="M 4.300781 14.347656 L 14.222656 14.347656 C 14.40625 14.347656 14.554688 14.199219 14.554688 14.015625 L 14.554688 13.355469 C 14.554688 13.171875 14.40625 13.023438 14.222656 13.023438 L 4.300781 13.023438 C 4.117188 13.023438 3.96875 13.171875 3.96875 13.355469 L 3.96875 14.015625 C 3.96875 14.199219 4.117188 14.347656 4.300781 14.347656 Z M 4.300781 14.347656 "/>
<path style=" stroke:none;fill-rule:nonzero;fill:rgb(25.882354%,25.882354%,25.882354%);fill-opacity:1;" d="M 4.300781 10.710938 L 14.222656 10.710938 C 14.40625 10.710938 14.554688 10.5625 14.554688 10.378906 L 14.554688 9.71875 C 14.554688 9.535156 14.40625 9.386719 14.222656 9.386719 L 4.300781 9.386719 C 4.117188 9.386719 3.96875 9.535156 3.96875 9.71875 L 3.96875 10.378906 C 3.96875 10.5625 4.117188 10.710938 4.300781 10.710938 Z M 4.300781 10.710938 "/>
<path style=" stroke:none;fill-rule:nonzero;fill:rgb(25.882354%,25.882354%,25.882354%);fill-opacity:1;" d="M 4.300781 7.070312 L 14.222656 7.070312 C 14.40625 7.070312 14.554688 6.921875 14.554688 6.738281 L 14.554688 6.078125 C 14.554688 5.894531 14.40625 5.746094 14.222656 5.746094 L 4.300781 5.746094 C 4.117188 5.746094 3.96875 5.894531 3.96875 6.078125 L 3.96875 6.738281 C 3.96875 6.921875 4.117188 7.070312 4.300781 7.070312 Z M 4.300781 7.070312 "/>
</g>
</svg>
